fs/leaf_three_20_regular.svg

<svg viewBox="0 0 20 20" fill="none" xmlns="http://www.w3.org/2000/svg" height="1em" width="1em">
  <path d="M16 7C16 7.34247 15.9655 7.67689 15.8999 8H16.6649C17.4023 8 18 8.59772 18 9.33505V13C18 15.7614 15.7614 18 13 18C11.7994 18 10.6976 17.5768 9.83568 16.8715L8.85363 17.8536C8.65837 18.0488 8.34178 18.0488 8.14652 17.8536C7.95126 17.6583 7.95126 17.3417 8.14652 17.1464L9.12856 16.1644C8.80003 15.7629 8.53271 15.3095 8.34085 14.8182C7.91414 14.9367 7.46446 15 7 15C4.23858 15 2 12.7614 2 10V6.33505C2 5.59772 2.59772 5 3.33505 5H6.41601C7.18756 3.2341 8.94964 2 11 2H14.6649C15.4022 2 16 2.59772 16 3.33505V7ZM7.51979 5.02669C9.41257 5.2222 10.992 6.47359 11.6591 8.18183C12.0859 8.06333 12.5355 8 13 8H14.8739C14.9562 7.68038 15 7.3453 15 7V3.33505C15 3.15001 14.85 3 14.6649 3H11C9.50841 3 8.20753 3.81639 7.51979 5.02669ZM10.5472 16.16C11.2246 16.6865 12.0757 17 13 17C15.2091 17 17 15.2091 17 13V9.33505C17 9.15001 16.85 9 16.6649 9H13C10.7909 9 9 10.7909 9 13C9 13.9244 9.31355 14.7755 9.8401 15.4529L13.1465 12.1464C13.3418 11.9512 13.6584 11.9512 13.8536 12.1464C14.0489 12.3417 14.0489 12.6583 13.8536 12.8536L10.5472 16.16ZM8 13C8 12.6014 8.04665 12.2136 8.13479 11.8419L5.64645 9.3536C5.45118 9.15834 5.45118 8.84176 5.64645 8.64649C5.84171 8.45123 6.15829 8.45123 6.35355 8.64649L8.5082 10.8011C8.98426 9.83049 9.76568 9.03677 10.7272 8.54522C10.1453 7.0554 8.6959 6 7 6H3.33505C3.15001 6 3 6.15001 3 6.33505V10C3 12.2091 4.79086 14 7 14C7.37159 14 7.73135 13.9493 8.07273 13.8545C8.02492 13.5768 8 13.2913 8 13Z" fill="#212121"/>
</svg>

<svg viewBox="0 0 20 20" fill="none" xmlns="http://www.w3.org/2000/svg" height="1em" width="1em">
  <path d="M16 7c0 .342-.034.677-.1 1h.765C17.402 8 18 8.598 18 9.335V13a5 5 0 0 1-8.164 3.872l-.982.982a.5.5 0 0 1-.707-.708l.982-.982a4.996 4.996 0 0 1-.788-1.346A5 5 0 0 1 2 10V6.335A1.334 1.334 0 0 1 3.334 5h3.081A5.001 5.001 0 0 1 11 2h3.665C15.402 2 16 2.598 16 3.335V7ZM7.52 5.027a5.004 5.004 0 0 1 4.14 3.155A5.005 5.005 0 0 1 13 8h1.874c.082-.32.126-.655.126-1V3.335A.335.335 0 0 0 14.665 3H11a3.999 3.999 0 0 0-3.48 2.027Zm3.027 11.133A4 4 0 0 0 17 13V9.335A.335.335 0 0 0 16.665 9H13a4 4 0 0 0-3.16 6.453l3.306-3.307a.5.5 0 0 1 .708.708l-3.307 3.306ZM8 13c0-.399.047-.786.135-1.158L5.646 9.354a.5.5 0 1 1 .708-.708l2.154 2.155a5.022 5.022 0 0 1 2.22-2.256A4.001 4.001 0 0 0 7 6H3.335A.335.335 0 0 0 3 6.335V10a4 4 0 0 0 5.073 3.854A5.033 5.033 0 0 1 8 13Z" fill="#212121"/>
</svg>
